src/components/game/cards/illustrations/AH.svg

<svg xmlns="http://www.w3.org/2000/svg" xmlns:xlink="http://www.w3.org/1999/xlink" class="card" height="336" preserveAspectRatio="none" viewBox="-120 -168 240 336" width="240"><symbol id="b" viewBox="-600 -600 1200 1200" preserveAspectRatio="xMinYMid"><path d="M0-300c0-100 100-200 200-200s200 100 200 250C400 0 0 400 0 500 0 400-400 0-400-250c0-150 100-250 200-250S0-400 0-300z" fill="red"/></symbol><symbol id="a" viewBox="-500 -500 1000 1000" preserveAspectRatio="xMinYMid"><path d="M-270 460h160m-90-10L0-460l200 910m-90 10h160m-390-330h240" stroke="red" stroke-width="80" stroke-linecap="square" stroke-miterlimit="1.5" fill="none"/></symbol><rect width="239" height="335" x="-119.5" y="-167.5" rx="12" ry="12" fill="#fff" stroke="#000"/><use xlink:href="#a" height="70" x="-122" y="-156"/><use xlink:href="#b" height="58.558" x="-116.279" y="-81"/><g transform="rotate(180)"><use xlink:href="#a" height="70" x="-122" y="-156"/><use xlink:href="#b" height="58.558" x="-116.279" y="-81"/></g></svg>

<?xml version="1.0" encoding="UTF-8" standalone="no"?>
<svg xmlns="http://www.w3.org/2000/svg" xmlns:xlink="http://www.w3.org/1999/xlink" class="card" face="AH" height="3.5in" preserveAspectRatio="none" viewBox="-120 -168 240 336" width="2.5in"><symbol id="SHA" viewBox="-600 -600 1200 1200" preserveAspectRatio="xMinYMid"><path d="M0 -300C0 -400 100 -500 200 -500C300 -500 400 -400 400 -250C400 0 0 400 0 500C0 400 -400 0 -400 -250C-400 -400 -300 -500 -200 -500C-100 -500 0 -400 -0 -300Z" fill="red"></path></symbol><symbol id="VHA" viewBox="-500 -500 1000 1000" preserveAspectRatio="xMinYMid"><path d="M-270 460L-110 460M-200 450L0 -460L200 450M110 460L270 460M-120 130L120 130" stroke="red" stroke-width="80" stroke-linecap="square" stroke-miterlimit="1.5" fill="none"></path></symbol><rect width="239" height="335" x="-119.5" y="-167.5" rx="12" ry="12" fill="white" stroke="black"></rect><use xlink:href="#VHA" height="70" x="-122" y="-156"></use><use xlink:href="#SHA" height="58.558" x="-116.279" y="-81"></use><g transform="rotate(180)"><use xlink:href="#VHA" height="70" x="-122" y="-156"></use><use xlink:href="#SHA" height="58.558" x="-116.279" y="-81"></use></g></svg>
